public/images/sponsors/Twilio.svg

<svg fill="none" height="86" viewBox="0 0 172 86" width="172" xmlns="http://www.w3.org/2000/svg"><path d="m43.28 38.56c0 2.04-1.68 3.72-3.72 3.72s-3.72-1.68-3.72-3.72 1.68-3.72 3.72-3.72 3.72 1.68 3.72 3.72zm-3.72 5.16c-2.04 0-3.72 1.68-3.72 3.72s1.68 3.72 3.72 3.72 3.72-1.68 3.72-3.72-1.68-3.72-3.72-3.72zm22.44-.72c0 9.96-8.04 18-18 18s-18-8.04-18-18 8.04-18 18-18 18 8.04 18 18zm-4.8 0c0-7.32-5.88-13.2-13.2-13.2s-13.2 5.88-13.2 13.2 5.88 13.2 13.2 13.2 13.2-5.88 13.2-13.2zm-8.76.72c-2.04 0-3.72 1.68-3.72 3.72s1.68 3.72 3.72 3.72 3.72-1.68 3.72-3.72-1.68-3.72-3.72-3.72zm0-8.88c-2.04 0-3.72 1.68-3.72 3.72s1.68 3.72 3.72 3.72 3.72-1.68 3.72-3.72-1.68-3.72-3.72-3.72zm61.92-2.76c.12 0 .24.12.36.24v3.84c0 .24-.24.36-.36.36h-6.36c-.24 0-.36-.24-.36-.36v-3.72c0-.24.24-.36.36-.36zm-.12 5.4h-12.24c-.12 0-.36.12-.36.36l-1.56 6-.12.36-1.92-6.36c0-.12-.24-.36-.36-.36h-4.8c-.12 0-.36.12-.36.36l-1.8 6-.12.36-.12-.36-.72-3-.72-3c0-.12-.24-.36-.36-.36h-9.6v-5.16c0-.12-.24-.36-.48-.24l-6 1.92c-.24 0-.36.12-.36.36v3.24h-1.56c-.12 0-.36.12-.36.36v4.56c0 .12.12.36.36.36h1.56v5.64c0 3.96 2.16 5.76 6.12 5.76 1.68 0 3.24-.36 4.32-.96v-4.8c0-.24-.24-.36-.36-.24-.6.24-1.2.36-1.68.36-1.08 0-1.68-.48-1.68-1.68v-4.08h3.48c.12 0 .36-.12.36-.36v-3.84l4.56 15.12c0 .12.24.36.36.36h5.04c.12 0 .36-.12.36-.36l2.16-6.72 1.08 3.48.96 3.24c0 .12.24.36.36.36h5.04c.12 0 .36-.12.36-.36l4.56-15.12v15.12c0 .12.12.36.36.36h6.12c.12 0 .36-.12.36-.36v-15.96c0-.12-.12-.36-.24-.36zm8.04-5.4h-6.12c-.12 0-.36.12-.36.36v21.24c0 .12.12.36.36.36h6.12c.12 0 .36-.12.36-.36v-21.36c0-.12-.12-.24-.36-.24zm8.16 0h-6.36c-.12 0-.36.12-.36.36v3.72c0 .12.12.36.36.36h6.36c.12 0 .36-.12.36-.36v-3.84c0-.12-.12-.24-.36-.24zm-.12 5.4h-6.12c-.12 0-.36.12-.36.36v15.72c0 .12.12.36.36.36h6.12c.12 0 .36-.12.36-.36v-15.72c0-.12-.12-.36-.36-.36zm19.32 8.16c0 4.56-3.84 8.52-9.24 8.52-5.28 0-9.12-3.96-9.12-8.52s3.84-8.52 9.24-8.52c5.28 0 9.12 3.96 9.12 8.52zm-6.48.12c0-1.68-1.2-3-2.64-2.88-1.56 0-2.64 1.32-2.64 2.88s1.2 2.88 2.64 2.88c1.56 0 2.64-1.32 2.64-2.88z" fill="#f22f46"/></svg>

<svg width="172" height="86" viewBox="0 0 172 86" fill="none" xmlns="http://www.w3.org/2000/svg">
<path d="M43.28 38.56C43.28 40.6 41.6 42.28 39.56 42.28C37.52 42.28 35.84 40.6 35.84 38.56C35.84 36.52 37.52 34.84 39.56 34.84C41.6 34.84 43.28 36.52 43.28 38.56ZM39.56 43.72C37.52 43.72 35.84 45.4 35.84 47.44C35.84 49.48 37.52 51.16 39.56 51.16C41.6 51.16 43.28 49.48 43.28 47.44C43.28 45.4 41.6 43.72 39.56 43.72ZM62 43C62 52.96 53.96 61 44 61C34.04 61 26 52.96 26 43C26 33.04 34.04 25 44 25C53.96 25 62 33.04 62 43ZM57.2 43C57.2 35.68 51.32 29.8 44 29.8C36.68 29.8 30.8 35.68 30.8 43C30.8 50.32 36.68 56.2 44 56.2C51.32 56.2 57.2 50.32 57.2 43ZM48.44 43.72C46.4 43.72 44.72 45.4 44.72 47.44C44.72 49.48 46.4 51.16 48.44 51.16C50.48 51.16 52.16 49.48 52.16 47.44C52.16 45.4 50.48 43.72 48.44 43.72ZM48.44 34.84C46.4 34.84 44.72 36.52 44.72 38.56C44.72 40.6 46.4 42.28 48.44 42.28C50.48 42.28 52.16 40.6 52.16 38.56C52.16 36.52 50.48 34.84 48.44 34.84ZM110.36 32.08C110.48 32.08 110.6 32.2 110.72 32.32V36.16C110.72 36.4 110.48 36.52 110.36 36.52H104C103.76 36.52 103.64 36.28 103.64 36.16V32.44C103.64 32.2 103.88 32.08 104 32.08H110.36ZM110.24 37.48H98C97.88 37.48 97.64 37.6 97.64 37.84L96.08 43.84L95.96 44.2L94.04 37.84C94.04 37.72 93.8 37.48 93.68 37.48H88.88C88.76 37.48 88.52 37.6 88.52 37.84L86.72 43.84L86.6 44.2L86.48 43.84L85.76 40.84L85.04 37.84C85.04 37.72 84.8 37.48 84.68 37.48H75.08V32.32C75.08 32.2 74.84 31.96 74.6 32.08L68.6 34C68.36 34 68.24 34.12 68.24 34.36V37.6H66.68C66.56 37.6 66.32 37.72 66.32 37.96V42.52C66.32 42.64 66.44 42.88 66.68 42.88H68.24V48.52C68.24 52.48 70.4 54.28 74.36 54.28C76.04 54.28 77.6 53.92 78.68 53.32V48.52C78.68 48.28 78.44 48.16 78.32 48.28C77.72 48.52 77.12 48.64 76.64 48.64C75.56 48.64 74.96 48.16 74.96 46.96V42.88H78.44C78.56 42.88 78.8 42.76 78.8 42.52V38.68L83.36 53.8C83.36 53.92 83.6 54.16 83.72 54.16H88.76C88.88 54.16 89.12 54.04 89.12 53.8L91.28 47.08L92.36 50.56L93.32 53.8C93.32 53.92 93.56 54.16 93.68 54.16H98.72C98.84 54.16 99.08 54.04 99.08 53.8L103.64 38.68V53.8C103.64 53.92 103.76 54.16 104 54.16H110.12C110.24 54.16 110.48 54.04 110.48 53.8V37.84C110.48 37.72 110.36 37.48 110.24 37.48ZM118.28 32.08H112.16C112.04 32.08 111.8 32.2 111.8 32.44V53.68C111.8 53.8 111.92 54.04 112.16 54.04H118.28C118.4 54.04 118.64 53.92 118.64 53.68V32.32C118.64 32.2 118.52 32.08 118.28 32.08ZM126.44 32.08H120.08C119.96 32.08 119.72 32.2 119.72 32.44V36.16C119.72 36.28 119.84 36.52 120.08 36.52H126.44C126.56 36.52 126.8 36.4 126.8 36.16V32.32C126.8 32.2 126.68 32.08 126.44 32.08ZM126.32 37.48H120.2C120.08 37.48 119.84 37.6 119.84 37.84V53.56C119.84 53.68 119.96 53.92 120.2 53.92H126.32C126.44 53.92 126.68 53.8 126.68 53.56V37.84C126.68 37.72 126.56 37.48 126.32 37.48ZM145.64 45.64C145.64 50.2 141.8 54.16 136.4 54.16C131.12 54.16 127.28 50.2 127.28 45.64C127.28 41.08 131.12 37.12 136.52 37.12C141.8 37.12 145.64 41.08 145.64 45.64ZM139.16 45.76C139.16 44.08 137.96 42.76 136.52 42.88C134.96 42.88 133.88 44.2 133.88 45.76C133.88 47.32 135.08 48.64 136.52 48.64C138.08 48.64 139.16 47.32 139.16 45.76Z" fill="#F22F46"/>
</svg>
